X:
T:Reflexion du 9e Croissant
C:Laurence Beaudry
N:© Laurence Beaudry, Reproduced with permission
Z:robin.beech@mcgill.ca
R:reel
M:4/4
L:1/8
K:G
B,2 DG E2AG | FdcA BGDB, | C2 EG FDFA | GBde dBGD |
B,2DG E2AG | FdcA BGDB, | CEGE DFAF |1 dcBA BGDC :|2 GBAF[G4C4] |: 
gfed B2ef | gfed cA ~A2 | FAdf edAF |GBdg bgdB | 
ggfe B2ef | gfed cA ~A2 | FAdf ecAF | GBdB cdef
ggfe B2ef | gfed cA ~A2 | FAdf edAF |GBdB bagf | 
ggfe B2ef | gfed cA ~A2 | FAdA FADA | GDB,D G,4 |]

